icons/1_Primary/TP-Link.svg

<svg width="1024" height="1024" viewBox="0 0 1024 1024" fill="none" xmlns="http://www.w3.org/2000/svg">
<g clip-path="url(#clip0_2_3705)">
<path d="M512 1024C794.77 1024 1024 794.77 1024 512C1024 229.23 794.77 0 512 0C229.23 0 0 229.23 0 512C0 794.77 229.23 1024 512 1024Z" fill="#96DFD3"/>
<path d="M579.77 256C554.796 255.923 530.053 260.782 506.962 270.297C483.871 279.812 462.888 293.796 445.218 311.444C427.547 329.093 413.538 350.06 403.996 373.139C394.453 396.218 389.564 420.955 389.61 445.93V486.39H495.81V445.93C495.81 400.38 532.74 363.51 579.81 363.51C626.34 363.51 658.72 396.26 658.72 444.9C658.72 493.04 623.82 528.37 577.26 528.37H537.28V635.87H577.23C680.95 635.87 764.91 550.39 764.91 444.87C764.91 335.33 686.51 255.97 579.78 255.97M259.09 612.34C259.09 625.65 270.21 638.96 285.38 638.96H386.55V741.38C386.55 754.69 397.67 768 412.84 768H499.34V524.79H259.09V612.34Z" fill="white"/>
</g>
<defs>
<clipPath id="clip0_2_3705">
<rect width="1024" height="1024" fill="white"/>
</clipPath>
</defs>
</svg>

<svg width="1024" height="1024" fill="none" xmlns="http://www.w3.org/2000/svg"><g clip-path="url(#a)"><path d="M512 1024c282.77 0 512-229.23 512-512S794.77 0 512 0 0 229.23 0 512s229.23 512 512 512Z" fill="#96DFD3"/><path d="M579.77 256a189.57 189.57 0 0 0-134.552 55.444A189.58 189.58 0 0 0 389.61 445.93v40.46h106.2v-40.46c0-45.55 36.93-82.42 84-82.42 46.53 0 78.91 32.75 78.91 81.39 0 48.14-34.9 83.47-81.46 83.47h-39.98v107.5h39.95c103.72 0 187.68-85.48 187.68-191 0-109.54-78.4-188.9-185.13-188.9M259.09 612.34c0 13.31 11.12 26.62 26.29 26.62h101.17v102.42c0 13.31 11.12 26.62 26.29 26.62h86.5V524.79H259.09v87.55Z" fill="#fff"/></g><defs><clipPath id="a"><path fill="#fff" d="M0 0h1024v1024H0z"/></clipPath></defs></svg>
